Sources/FrostedUI/Resources/Icons.xcassets/apps12.imageset/apps-12.svg

<svg width="12" height="12" viewBox="0 0 12 12" fill="none" xmlns="http://www.w3.org/2000/svg" data-fui-icon="true">
  <path
    d="M5.99976 0C6.41397 0 6.74976 0.335786 6.74976 0.75V2.14648C7.48251 2.44327 7.99976 3.1608 7.99976 4C7.99976 4.45905 7.84282 4.88023 7.58276 5.21777L8.75171 7.21191C8.76633 7.19403 8.78343 7.17807 8.79761 7.16016C9.07065 6.81471 9.25657 6.46519 9.37378 6.20215C9.43186 6.07177 9.47212 5.96472 9.49683 5.89355C9.509 5.85846 9.51735 5.83221 9.52222 5.81641C9.52425 5.80979 9.52533 5.8045 9.52612 5.80176L9.5271 5.80078V5.79883C9.63764 5.40157 10.0488 5.16791 10.447 5.27637C10.8465 5.38548 11.0823 5.79781 10.9734 6.19727L10.2498 6C10.9284 6.18538 10.9708 6.1972 10.9734 6.19824L10.9724 6.20117C10.9721 6.2023 10.9718 6.20366 10.9714 6.20508C10.9705 6.20842 10.9689 6.21296 10.9675 6.21777C10.9647 6.22769 10.9607 6.24103 10.9558 6.25684C10.946 6.28865 10.9323 6.33246 10.9138 6.38574C10.8769 6.49221 10.8214 6.6395 10.7439 6.81348C10.5896 7.15967 10.3432 7.62309 9.97437 8.08984C9.84745 8.2504 9.70409 8.41062 9.54663 8.56738L10.8972 10.8711C11.1063 11.2284 10.9858 11.6881 10.6287 11.8975C10.2714 12.1064 9.81165 11.986 9.60229 11.6289L8.32983 9.45801C7.6959 9.78397 6.92611 10 5.99976 10C5.07304 9.99997 4.30277 9.78422 3.6687 9.45801L2.39722 11.6289C2.18781 11.986 1.72809 12.1065 1.37085 11.8975C1.01381 11.6881 0.893298 11.2283 1.10229 10.8711L2.4519 8.56738C2.29465 8.41078 2.15192 8.25023 2.02515 8.08984C1.65628 7.62309 1.40989 7.15966 1.25562 6.81348C1.1781 6.6395 1.12264 6.4922 1.08569 6.38574C1.0672 6.33245 1.05349 6.28864 1.0437 6.25684C1.03884 6.24103 1.03486 6.22769 1.03198 6.21777C1.03059 6.21296 1.02901 6.20841 1.02808 6.20508C1.02768 6.20366 1.02741 6.2023 1.0271 6.20117V6.19922C1.02707 6.19882 1.03439 6.19541 1.74976 6L1.02612 6.19727C0.917275 5.79789 1.15317 5.38555 1.55249 5.27637C1.95167 5.16754 2.36295 5.40281 2.47241 5.80176C2.47319 5.80443 2.47519 5.80956 2.47729 5.81641C2.48216 5.83219 2.49051 5.85845 2.50269 5.89355C2.52738 5.96471 2.56766 6.07176 2.62573 6.20215C2.74293 6.46518 2.92888 6.81471 3.2019 7.16016C3.21594 7.17792 3.23233 7.19419 3.24683 7.21191L4.41577 5.21777C4.15598 4.88032 3.99976 4.4588 3.99976 4C3.99976 3.16087 4.51709 2.44332 5.24976 2.14648V0.75C5.24976 0.335852 5.58563 0.000106057 5.99976 0ZM6.28882 5.97559C6.19433 5.98929 6.09804 6 5.99976 6C5.90114 5.99999 5.80451 5.98938 5.70972 5.97559L4.42944 8.16113C4.85864 8.36729 5.37565 8.49997 5.99976 8.5C6.62348 8.5 7.14004 8.36705 7.56909 8.16113L6.28882 5.97559ZM5.99976 3.5C5.7237 3.50011 5.49976 3.72392 5.49976 4C5.49976 4.27608 5.7237 4.49989 5.99976 4.5C6.2759 4.5 6.49976 4.27614 6.49976 4C6.49976 3.72386 6.2759 3.5 5.99976 3.5Z"
    fill="currentColor"
  />
</svg>

<svg xmlns="http://www.w3.org/2000/svg" width="12" height="12" fill="none" data-fui-icon="true" viewBox="0 0 12 12"><path fill="currentColor" d="M6 0a.75.75 0 0 1 .75.75v1.396A2 2 0 0 1 8 4c0 .46-.157.88-.417 1.218l1.169 1.994q.022-.026.046-.052a4.6 4.6 0 0 0 .724-1.344l.004-.014.001-.001v-.002a.75.75 0 0 1 1.446.398L10.25 6l.723.198v.003l-.002.004-.004.013-.011.039-.042.129a6.048 6.048 0 0 1-.94 1.704q-.191.24-.427.477l1.35 2.304a.75.75 0 0 1-1.295.758L8.33 9.458C7.696 9.784 6.926 10 6 10s-1.697-.216-2.331-.542l-1.272 2.17a.751.751 0 0 1-1.295-.757l1.35-2.304a5 5 0 0 1-.427-.477 6 6 0 0 1-.94-1.704 4 4 0 0 1-.053-.168l-.004-.013V6.2s.006-.004.722-.199l-.724.197a.75.75 0 0 1 1.446-.395l.005.014.026.078a4.546 4.546 0 0 0 .7 1.267q.021.025.044.05l1.169-1.993a2 2 0 0 1 .834-3.071V.75A.75.75 0 0 1 6 0m.289 5.976a2 2 0 0 1-.29.024q-.146-.002-.29-.024L4.43 8.16c.43.206.947.339 1.57.339s1.141-.133 1.57-.339zM5.999 3.5A.5.5 0 1 0 6 4.5a.5.5 0 0 0 0-1"/></svg>
